src/assets/img/breeder-page/collar.svg

<?xml version="1.0" encoding="UTF-8"?>
<svg width="40px" height="35px" viewBox="0 0 40 35" version="1.1" xmlns="http://www.w3.org/2000/svg" xmlns:xlink="http://www.w3.org/1999/xlink">
    <!-- Generator: Sketch 55.2 (78181) - https://sketchapp.com -->
    <title>collar@1,5x</title>
    <desc>Created with Sketch.</desc>
    <g id="Home" stroke="none" stroke-width="1" fill="none" fill-rule="evenodd">
        <g id="Breeder's_Card_Desktop" transform="translate(-1140.000000, -933.000000)" fill-rule="nonzero">
            <g id="Group-14" transform="translate(1055.000000, 909.000000)">
                <g id="collar" transform="translate(85.000000, 24.000000)">
                    <path d="M25.5734375,27.1560156 L23.1305469,23.3064844 C23.023125,23.1371094 22.8364062,23.0345313 22.6357812,23.0345313 L17.3641406,23.0345313 C17.1635156,23.0345313 16.976875,23.1371094 16.869375,23.3064844 L14.4264844,27.1560156 C14.3048437,27.3476562 14.3048437,27.5922656 14.4264844,27.7839062 L16.869375,31.6334375 C16.9767969,31.8028125 17.1635156,31.9054687 17.3641406,31.9054687 L22.6357812,31.9054687 C22.8363281,31.9054687 23.0230469,31.8028906 23.1305469,31.6335156 L25.5734375,27.7839063 C25.6950781,27.5922656 25.6950781,27.3476562 25.5734375,27.1560156 Z M22.3136719,30.7336719 L17.68625,30.7336719 L15.6152344,27.47 L17.68625,24.2064063 L22.3136719,24.2064063 L24.3846875,27.47 L22.3136719,30.7336719 Z" id="Shape" fill="#645FC9"></path>
                    <path d="M39.2292969,9.5671875 C39.2289063,9.56640625 39.2284375,9.56578125 39.228125,9.56492187 C38.0505469,6.84945313 35.5134375,4.41242188 32.08375,2.70242188 C28.5877344,0.959453125 24.4092188,0.038125 20,0.038125 C15.4607031,0.038125 11.0184375,1.06195313 7.49132813,2.92101563 C7.20507813,3.071875 7.0953125,3.42632813 7.24617187,3.71257813 C7.39703125,3.99882813 7.75148438,4.10859375 8.03773438,3.95773438 C11.3994531,2.18585938 15.6477344,1.21007813 20,1.21007813 C28.3107031,1.21007813 35.6778906,4.72992188 38.04875,9.8 C38.0470313,9.80367187 38.0454688,9.80734375 38.0438281,9.81101562 C37.6019531,10.7535937 36.9960938,11.6139844 36.29625,12.3823437 C35.0254687,11.2075781 33.4799219,10.1852344 31.6935156,9.33851562 C31.4010156,9.19992187 31.0516406,9.32460937 30.9130469,9.61703125 C30.7744531,9.90945312 30.8991406,10.2588281 31.1915625,10.3975 C32.855625,11.18625 34.2911719,12.1324219 35.4686719,13.2142187 C34.1372656,14.4358594 32.4503906,15.5026562 30.4797656,16.3496094 C27.3732031,17.6848437 23.7494531,18.390625 20.0000781,18.390625 C13.7233594,18.390625 7.98546875,16.3824219 4.53109375,13.2154687 C8.0671875,9.96289062 13.7925,8.03523437 20,8.03523437 C23.1128906,8.03523437 26.2007812,8.53421875 28.9299219,9.47820312 C29.235625,9.58398438 29.5694531,9.42179687 29.6752344,9.11601562 C29.7810156,8.81023438 29.6188281,8.47648437 29.3130469,8.37070312 C26.4621875,7.38453125 23.2417969,6.86335938 20.0000781,6.86335938 C13.4871875,6.86335938 7.4515625,8.91726563 3.7034375,12.3825 C3.00296875,11.613125 2.39421875,10.7465625 1.95234375,9.80273438 C1.95195312,9.80195313 1.95164062,9.80109375 1.95125,9.8003125 C2.74867187,8.09882813 4.15859375,6.50375 6.04382812,5.17414063 C6.30828125,4.98765625 6.37140625,4.62203125 6.18492187,4.35757813 C5.99835937,4.093125 5.63273437,4.03 5.36835937,4.21648438 C3.22226562,5.73015625 1.63296875,7.57953125 0.771953125,9.56492187 C0.7715625,9.56570312 0.77109375,9.56640625 0.77078125,9.5671875 C0.259296875,10.7473437 0,11.9739062 0,13.2128125 C0,18.6884375 5.10046875,23.5585937 12.7789844,25.5063281 L12.4748437,25.985625 C11.9025781,26.8873437 11.9025781,28.0526562 12.4748437,28.954375 L14.9752344,32.8946094 C15.48625,33.6999219 16.3607031,34.180625 17.314375,34.180625 L22.685625,34.180625 C23.639375,34.180625 24.5138281,33.6999219 25.0247656,32.8946094 L27.5251562,28.954375 C28.0974219,28.0526563 28.0974219,26.8873437 27.5251562,25.985625 L27.2208594,25.5061719 C28.9002344,25.0797656 30.4823437,24.5064844 31.9336719,23.796875 C34.363125,22.6090625 36.380625,21.0484375 37.7680469,19.2835156 C39.2282031,17.42625 40,15.3270312 40,13.2128125 C40,11.9739844 39.7407031,10.7473437 39.2292969,9.5671875 Z M26.5357031,28.3265625 L24.0353125,32.2667969 C23.7404687,32.7314062 23.2359375,33.0088281 22.685625,33.0088281 L17.314375,33.0088281 C16.7640625,33.0088281 16.2595312,32.7314844 15.9646875,32.2667969 L13.4642969,28.3264844 C13.1341406,27.8061719 13.1341406,27.1338281 13.4642969,26.6135156 L14.2085938,25.4407031 C14.2085938,25.440625 14.2086719,25.440625 14.2086719,25.4405469 L15.9646875,22.6732813 C16.1305469,22.411875 16.3627344,22.2097656 16.6321094,22.0829688 C16.8416406,21.9842969 17.0735938,21.93125 17.314375,21.93125 L22.685625,21.93125 C22.9264062,21.93125 23.1583594,21.984375 23.3678906,22.0829688 C23.6372656,22.2097656 23.8694531,22.411875 24.0353125,22.6732813 L25.6859375,25.2744531 L26.5357031,26.6135156 C26.8658594,27.1338281 26.8658594,27.80625 26.5357031,28.3265625 Z M31.8891406,21.3397656 C31.7853125,21.8451563 31.5792187,22.3311719 31.2907031,22.7586719 C31.2746094,22.7825 31.2582031,22.8061719 31.2415625,22.8297656 C29.8034375,23.5160938 28.2309375,24.0644531 26.55875,24.4627344 L25.0247656,22.0453906 C24.7053906,21.5421094 24.2440625,21.1655469 23.7100781,20.9539844 C23.3896875,20.8270312 23.0432031,20.759375 22.6855469,20.759375 L17.3142969,20.759375 C16.6070312,20.759375 15.9438281,21.0242187 15.4396094,21.4892187 C15.2639062,21.6513281 15.1071875,21.8372656 14.9750781,22.0453906 L13.4410937,24.4627344 C6.08492188,22.7124219 1.171875,18.225625 1.171875,13.2128125 C1.171875,12.5639062 1.2540625,11.9178906 1.4171875,11.2811719 C1.91234375,12.1003906 2.53195313,12.885625 3.27054688,13.6264844 C4.6128125,14.9714844 6.22007813,16.0523438 7.91625,16.8979688 C11.4122656,18.6409375 15.5907031,19.5622656 19.9999219,19.5622656 C23.7773438,19.5622656 27.439375,18.871875 30.6167187,17.563125 C30.6221094,17.5678906 30.6274219,17.5727344 30.6328125,17.5774219 C31.681875,18.5 32.1709375,19.9676563 31.8891406,21.3397656 Z M36.8467969,18.559375 C35.8696875,19.8022656 34.5436719,20.9402344 32.9592187,21.9033594 C32.9620313,21.8932031 32.9642969,21.8829687 32.9670312,21.8728125 C33.1499219,21.1924219 33.1907031,20.4614063 33.0820312,19.7603906 C32.9257031,18.7524219 32.4653906,17.7975 31.7705469,17.0503125 C34.4394531,15.7730469 36.9573438,13.9165625 38.5301563,11.3671875 C38.5477344,11.33875 38.5657813,11.3104688 38.5830469,11.2819531 C38.7460156,11.9183594 38.8282031,12.5642188 38.8282031,13.2127344 C38.828125,15.0882031 38.1614844,16.8870312 36.8467969,18.559375 Z" id="Shape" fill="#0E0B4D"></path>
                </g>
            </g>
        </g>
    </g>
</svg>

<svg xmlns="http://www.w3.org/2000/svg" width="40" height="35" viewBox="0 0 40 35">
    <g fill="#0E0B4D" fill-rule="nonzero" opacity=".5">
        <path d="M25.573 27.156l-2.442-3.85a.586.586 0 0 0-.495-.271h-5.272c-.2 0-.387.102-.495.271l-2.443 3.85a.586.586 0 0 0 0 .628l2.443 3.85c.108.169.295.271.495.271h5.272c.2 0 .387-.102.495-.271l2.442-3.85a.586.586 0 0 0 0-.628zm-3.26 3.578h-4.627l-2.07-3.264 2.07-3.264h4.628l2.07 3.264-2.07 3.264z"/>
        <path d="M39.23 9.567l-.002-.002c-1.177-2.716-3.715-5.153-7.144-6.863C28.588.96 24.409.038 20 .038c-4.54 0-8.982 1.024-12.509 2.883a.586.586 0 0 0 .547 1.037C11.399 2.186 15.648 1.21 20 1.21c8.31 0 15.678 3.52 18.049 8.59l-.005.011c-.442.943-1.048 1.803-1.748 2.571-1.27-1.174-2.816-2.197-4.602-3.043a.586.586 0 1 0-.502 1.059c1.664.788 3.1 1.734 4.277 2.816-1.332 1.222-3.019 2.289-4.99 3.136-3.106 1.335-6.73 2.04-10.479 2.04-6.277 0-12.015-2.008-15.469-5.175C8.067 9.963 13.793 8.035 20 8.035c3.113 0 6.2.5 8.93 1.443a.586.586 0 0 0 .383-1.107c-2.85-.986-6.071-1.508-9.313-1.508-6.513 0-12.548 2.054-16.297 5.52-.7-.77-1.309-1.636-1.75-2.58L1.95 9.8C2.75 8.1 4.16 6.504 6.044 5.174a.586.586 0 0 0-.676-.958C3.222 5.73 1.633 7.58.772 9.565l-.001.002A9.125 9.125 0 0 0 0 13.213c0 5.475 5.1 10.346 12.779 12.293l-.304.48a2.781 2.781 0 0 0 0 2.968l2.5 3.94a2.757 2.757 0 0 0 2.34 1.287h5.37c.954 0 1.829-.481 2.34-1.286l2.5-3.94a2.781 2.781 0 0 0 0-2.97l-.304-.479c1.68-.426 3.261-1 4.713-1.71 2.43-1.187 4.447-2.748 5.834-4.512C39.228 17.426 40 15.327 40 13.213c0-1.239-.26-2.466-.77-3.646zm-12.694 18.76l-2.5 3.94a1.59 1.59 0 0 1-1.35.742h-5.372a1.59 1.59 0 0 1-1.35-.742l-2.5-3.94a1.605 1.605 0 0 1 0-1.713l.745-1.173 1.756-2.768a1.594 1.594 0 0 1 1.35-.742h5.37a1.6 1.6 0 0 1 1.35.742l1.65 2.601.85 1.34c.33.52.33 1.192 0 1.713zm5.353-6.987a3.981 3.981 0 0 1-.647 1.49 23.545 23.545 0 0 1-4.683 1.633l-1.534-2.418a2.76 2.76 0 0 0-2.34-1.286h-5.37a2.756 2.756 0 0 0-2.34 1.286l-1.534 2.418c-7.356-1.75-12.27-6.237-12.27-11.25 0-.65.083-1.295.246-1.932a12.47 12.47 0 0 0 1.854 2.345c1.342 1.345 2.95 2.426 4.645 3.272 3.496 1.743 7.675 2.664 12.084 2.664 3.777 0 7.44-.69 10.617-1.999l.016.014a3.997 3.997 0 0 1 1.256 3.763zm4.958-2.78c-.977 1.242-2.303 2.38-3.888 3.343l.008-.03a5.16 5.16 0 0 0 .115-2.113 5.162 5.162 0 0 0-1.311-2.71c2.668-1.277 5.186-3.133 6.76-5.683l.052-.085c.163.636.245 1.282.245 1.93 0 1.876-.667 3.675-1.981 5.347z"/>
    </g>
</svg>
